X:1
T:Title
%%score { 1 | 2 }
L:1/8
M:4/4
K:Ab
V:1 treble nm="Grand Piano"
V:2 bass 
V:1
 z4 z2[Q:1/4=100] cd | e2 [Ec][EB] [EA]2 [DG][CA] | B A2 F [CE]3 [CA] | %3
 [CA]2 [CA][CA] [=DA]2 [DB][Dc] | B6 cd | e2 [Ec][EB] [EA]2 [DG][CA] |[M:3/4] B A2 F [CE]2 | %7
[M:1/4] cd |[M:4/4] e2 [Ec][Fd] [Ec]2 [DB]2 |[M:3/4] [CA]6 |[M:1/4] cd | %11
[M:4/4] e2 fe [Ec]2 [EB][EA] | B A2 F [CE]2 cd | e2 fe [Ec]2 [EB][EA] | B6 cd | %15
 e2 fe [Ec]2 [EB][EA] | B A2 F [CA]2 [CA][DB] |[M:5/4] [Ec]3 [DB][CA] B3 AG |[M:3/4] [CA]6 |] %19
V:2
 z4 z2 [A,E][A,B,E] | [A,CE]2 [A,,A,][B,,G,] [C,A,]2 [B,,E,][A,,E,] | %2
 [D,F,D] [D,F,D]2 [D,A,D] [A,,A,]3 [A,,A,] | [A,,A,]2 [A,,A,][A,,A,] [B,,F,]2 [B,,F,][B,,A,] | %4
 [E,G,E]6 [A,E][A,B,E] | [A,CE]2 [A,,A,][B,,G,] [C,A,]2 [B,,E,][A,,E,] | %6
[M:3/4] [D,F,D] [D,F,D]2 [D,A,D] [A,,A,]2 |[M:1/4] [A,E][A,B,E] | %8
[M:4/4] [A,CE]2 [A,,A,][D,A,] [E,A,]2 [E,G,]2 |[M:3/4] [A,,A,]6 |[M:1/4][K:treble] [A,E][A,B,E] | %11
[M:4/4] [A,CA]2 [A,DA][A,CA][K:bass] [A,,A,]2 [B,,G,][C,A,] | %12
 [D,F,D] [D,F,D]2 [D,A,D] [A,,A,]2[K:treble] [A,E][A,B,E] | %13
 [A,CA]2 [A,DA][A,CA][K:bass] [A,,A,]2 [B,,G,][C,A,] | [E,G,E]6 [A,E][K:treble][A,B,E] | %15
 [A,CA]2 [A,DA][A,CA][K:bass] [A,,A,]2 [B,,G,][C,A,] | %16
 [D,F,D] [D,F,D]2 [D,A,D] [A,,A,]2 [A,,A,][A,,A,] | %17
[M:5/4] [A,,A,]3 [A,,A,][A,,A,] [E,G,D]3 [E,A,C][E,B,D] |[M:3/4] [A,,A,]6 |] %19

